Obsidian-SemiLight/actions/24s/distribute-horizontal-baseline.svg

<svg viewBox="0 0 24 24" xmlns="http://www.w3.org/2000/svg"><path d="m7 4-3 2 3 2zm4 0v4l3-2zm-3.8847656 5.0292969c-1.1727374.0254798-2.0739606.2155925-2.7285156.4960937l.3691406 1.2636714c.3136373-.102059 1.4998512-.458984 2.1953125-.458984h.0957031c.9681925.03822 1.0351562.368724 1.0351562 1.146484v.306641l-.5039062.076172c-2.3454896.318762-3.5996094.586482-3.5996094 2.269531 0 1.173034.9135773 1.900391 2.2363282 1.900391.9136461 0 1.5133187-.35729 2.1269531-.841797l.1914062.712891h1.4453125v-4.716797c0-1.4407817-1.0647838-2.1542971-2.7011718-2.1542971zm6.1269536 1.5410151c0 1.898501 1.341099 3.470747 2.349609 4.435547-1.19879 1.2178-2.676999 1.766469-5.380859 2.230469l.277343 1.333984c6.02738-1.0344 8.722657-4.824501 8.722657-8h-1.476563c0 .923501-.466475 2.705979-1.265625 3.392579-.81579-.7731-1.799919-1.968194-2.037109-3.371094zm-5.1601568 2.207032v1.568359c-.5045415.318763-.8864603.548828-1.5410156.548828-.5863687 0-.8730469-.345571-.8730468-.830078 0-.918027.8601367-1.070687 1.9101562-1.210937z" fill="#4d4d4d"/></svg>

<svg xmlns="http://www.w3.org/2000/svg" viewBox="0 0 24 24">
  <defs id="defs3051">
    <style type="text/css" id="current-color-scheme">
      .ColorScheme-Text {
        color:#4d4d4d;
      }
      </style>
  </defs>
 <path style="fill:currentColor;fill-opacity:1;stroke:none" 
     d="M 7 4 L 4 6 L 7 8 L 7 4 z M 11 4 L 11 8 L 14 6 L 11 4 z M 7.1152344 9.0292969 C 5.942497 9.0547767 5.0412738 9.2448894 4.3867188 9.5253906 L 4.7558594 10.789062 C 5.0694967 10.687003 6.2557106 10.330078 6.9511719 10.330078 L 7.046875 10.330078 C 8.0150675 10.368298 8.0820312 10.698802 8.0820312 11.476562 L 8.0820312 11.783203 L 7.578125 11.859375 C 5.2326354 12.178137 3.9785156 12.445857 3.9785156 14.128906 C 3.9785156 15.30194 4.8920929 16.029297 6.2148438 16.029297 C 7.1284899 16.029297 7.7281625 15.672007 8.3417969 15.1875 L 8.5332031 15.900391 L 9.9785156 15.900391 L 9.9785156 11.183594 C 9.9785156 9.7428123 8.9137318 9.0292969 7.2773438 9.0292969 L 7.1152344 9.0292969 z M 13.242188 10.570312 C 13.242188 12.468813 14.583287 14.041059 15.591797 15.005859 C 14.393007 16.223659 12.914798 16.772328 10.210938 17.236328 L 10.488281 18.570312 C 16.515661 17.535912 19.210938 13.745811 19.210938 10.570312 L 17.734375 10.570312 C 17.734375 11.493813 17.2679 13.276291 16.46875 13.962891 C 15.65296 13.189791 14.668831 11.994697 14.431641 10.591797 L 13.242188 10.570312 z M 8.0820312 12.777344 L 8.0820312 14.345703 C 7.5774897 14.664466 7.1955709 14.894531 6.5410156 14.894531 C 5.9546469 14.894531 5.6679687 14.54896 5.6679688 14.064453 C 5.6679688 13.146426 6.5281055 12.993766 7.578125 12.853516 L 8.0820312 12.777344 z "
     class="ColorScheme-Text"
     />
</svg>
